X: 1
T:Blanchland Races. JMT068
T:Timour The Tartar. JMT068
M:C
L:1/8
S:J.Moore,Tyneside,1841.(47b)
R:Reel
O:England
A:Northumbria
Z:C.G.P
K:A
E|A2c/-B/A eAcA|eAaA gAfA|eA c/-B/A eA c/-B/A|BEcE dEBE|!
 A2c/-B/A eAcA|eAaA gAfA|efec eaec|BABcA3:|!
|:A|E2G/-F/E BEGE|BEdE cEBE|A2c/-B/A eAcA|eAaA gAfA|!
eA c/-B/A aAfA|eA c/-B/A aAfA|ecfe dcBA|GABA GEFG:|]
